!!!OTL: 159. Herr Ulrich.
!!!ARE: Europa, Mitteleuropa, Deutschland
!!!SCT: B0159
!!!TXL: @@DE
!!!YEM: Copyright 1995, estate of Helmut Schaffrath.
**kern	**text
*ICvox	*
*Ivox	*
*M4/4	*
*met(c|)	*
*clefG2	*
*k[f#]	*
*e:	*
!LO:TX:a:t=Mit Wehmuth.	!
{4e	Wer
=1	=1
2e	ſin-
4e	-get
4e	im
=2	=2
2g	Wal-
4f#	-de
4e	ſo
=3	=3
2g	heim-
4f#	-lich
4e	al-
=4	=4
2b;}	-lein?
!LO:TX:a:t=Kehrreim.	!
{4e	[O
4f#	du
=5	=5
4g	lie-
4f#	-be,
4g	lie-
4e	-be
=6	=6
2b}	Seel',
{4e	o
4f#	mein
=7	=7
(4g	ein-
4f#)	.
4g	-ʒi-
4e	-ges
=8	=8
[1b	Kind,
=9	=9
2b]	.
2b	o
=10	=10
[1e	weh!]
=11	=11
2e;]}	.
{4g	Und
4a	die
=12	=12
2b	Kir-
2b	-chen-
=13	=13
2b	-glok-
4cc	-ken
4b	ſie
=14	=14
(4b/	läu-
4a)	.
4a	-ten
4a	da-
=15	=15
2a}	-rein,
!LO:TX:a:t=Kehrreim.	!
{4f#	und
4g	das
=16	=16
4a	Scheiden
4a	.
4a	und
4a	das
=17	=17
(4a	Mei-
4dd)	.
4dd	-den,
4cc	wie
=18	=18
4b/	thut
4g	es
4g	doch
4g	ſo
=19	=19
2g}	weh!
{2a^	A-
=20	=20
4b	-de!
4b	a-
4b	-de!
4b	a-
=21	=21
4b;	-de:
4b	ich
4b	ſeh
4b	dich
=22	=22
(4dd	nim-
4cc	.
4b)	.
4a	-mer-
=23	=23
2b}	-meh!
{2b^	A-
=24	=24
4b	-de!
4b	a-
4b	-de!
4b	a-
=25	=25
4b;	-de
4b	ich
4b	ſeh
4b	dich
=26	=26
(2b/	nim-
2a	.
=27	=27
2g)	.
2f#	-mer-
=28	=28
2.e;}	-meh!
==	==
!!!AGN: Ballade
!!!GTL: Balladen und Romanzen
!!!ONB: ESAC (Essen Associative Code) Database: BOEHME
!!!AMT: simple quadruple
!!!AIN: vox
!!!EED: Helmut Schaffrath
!!!EEV: 1.0
!!Mel. von Hoffmann v. F. 1823.
!!@@COMMENT:"Gedicht von Hoffmann von Fallersleben 1823. - Der Dichter hat hier mit Geſchick
!!und Glück durch altgermaniſche Art den Kehrreim ʒur Unterbrechung der Versʒeilen eingeſchoben.
!!Kein Wunder daß ihm die Dänen die Erfindung des Tertes abſprechen. - Die verarbeitett poeti-
!!ſche Jdee (das Wiederſehen der Geliebten im Sarge bei der Heimkehr des Gatten und deſſen Tod
!!bei diem Anblick) iſt keine von Hoffmann erfundene, ſondern in alten deutſchen Balladen und von
!!Ubland (Es ʒogen drei Burſche wohl über den Rhein) ſchon gebrachte. - Man vergleiche den-
!!ſelben Jnhalt in der Ballade: "Ritter und Maid" (Es ſpielte ein Ritter mit einer Magd) Liederhort J, Nr. 110."
!!@@END:
!!!Text: H. von Fallersleben
!!!URL-scan: https://archive.org/details/BoehmeVtLieder1895/page/n157/mode/2up
!!!ENC: Anna Maria Matuszewska
!!!EEV: 2024/19/06
*-	*-
